src/assets/social/SocialMedium.svg

<svg viewBox="0 0 24 24" xmlns="http://www.w3.org/2000/svg">
<path fill-rule="evenodd" clip-rule="evenodd" d="M2.846 6.45019C2.876 6.15988 2.763 5.8735 2.543 5.67865L0.303 3.02159V2.625H7.261L12.639 14.2324L17.367 2.625H24V3.02159L22.084 4.82938C21.919 4.95337 21.837 5.15708 21.871 5.35882V18.6422C21.837 18.8429 21.919 19.0466 22.084 19.1706L23.955 20.9784V21.375H14.543V20.9784L16.482 19.1263C16.672 18.9394 16.672 18.8843 16.672 18.5979V7.86138L11.283 21.3317H10.555L4.28 7.86138V16.8895C4.228 17.2684 4.356 17.6512 4.627 17.9248L7.148 20.9341V21.3317H0V20.9341L2.521 17.9248C2.791 17.6502 2.911 17.2654 2.846 16.8895V6.45019Z" />
</svg>

<svg xmlns="http://www.w3.org/2000/svg" viewBox="0 0 24 24"><path fill-rule="evenodd" d="M2.846 6.45a.906.906 0 0 0-.303-.771L.303 3.022v-.397h6.958l5.378 11.607 4.728-11.607H24v.397l-1.916 1.807a.548.548 0 0 0-.213.53v13.283c-.034.2.048.405.213.529l1.871 1.807v.397h-9.412v-.397l1.939-1.852c.19-.187.19-.242.19-.528V7.86l-5.389 13.47h-.728L4.28 7.862v9.029c-.052.378.076.761.347 1.035l2.521 3.01v.397H0v-.398l2.521-3.01c.27-.274.39-.659.325-1.034z" clip-rule="evenodd"/></svg>
